X: 16479
T: Hag's Purse, The
R: jig
M: 6/8
K: Dmixolydian
|:ADD FED|ADD cBA|GEE EDE|c2d cAG|
ADD FED|ADD cBA|GEE cEE|1 DED DE/F/G:|2 DED DFA||
|:d2e fed|efd cAG|~E3 cEE|c2d cAG|
Ade fed|efd cAG|~E3 cEE|1 DED DFA:|2 DED DE/F/G||

